!!!COM: tim-mcgraw
!!!OTL: its-your-love
!!!RNB: hooktheoryid: YRzojGqQmDe
**kern	**text
*clefG2	*
*k[f#]	*
*M4/4	*
=1	=1
16b	G
16b	.
16b	.
16b	.
4b	.
2r	.
=2	=2
16a	D
16a	.
16a	.
16a	.
8.b	.
8a	.
4..r	.
=3	=3
16b	Em
16b	.
8b	.
8b	.
8g	.
4.r	.
8g	.
=4	=4
16a	C
16g	.
8g	.
4e	.
4..r	.
16g	.
=5	=5
16b	G
16b	.
8b	.
4b	.
2r	.
=6	=6
16a	D
16a	.
8b	.
4a	.
4..r	.
16b	.
=7	=7
16ee	Em
16ee	.
16ee	.
16ee	.
8.ee	.
16ee	.
8ee	.
8ee	.
16ee	.
16dd	.
8dd	.
=8	=8
16dd	C
16cc	.
8cc	.
4g	.
8r	.
4b	.
16a	.
16g	.
=9	=9
1r	.
*-	*-